X:1
T:Arthur’s Seat, 66.66.88
T:Arthur’s Seat, 66.66.88
T:John Goss, 1874
T:Public Domain Courtesy of the Cyber Hymnal™
C:John Goss, 1874
Z:Public Domain
Z:Courtesy of the Cyber Hymnal™
%%score ( 1 2 ) ( 3 4 )
L:1/8
Q:1/4=113
M:none
K:Bb
V:1 treble 
V:2 treble 
V:3 bass 
V:4 bass 
V:1
 F2 | B3 B A2 G2 | F6 (GA) | [FB]2 [Fc]2 [Fd]2 (cB) | [Fc]6 F2 | [Fd]3 [Fc] [FB]2 [FA]2 | %6
 (G2 A2 [FB]2) [Fd]2 | [Fc]3 [Fc] [=Ed]2 [Ec]2 | F6 [CF]2 | [DG]3 [DG] [DG]2 [DG]2 | %10
 [EA]3 [EA] [EA]2 [EA]2 | [DB]4 [G=B]4 | (c2 d2 e2) [Ec]2 | [DB]4 [CA]4 | [DB]6 |] %15
V:2
 F2 | B3 B A2 G2 | F6 E2 | x6 F2 | x6 F2 | x8 | E4 x4 | x8 | F6 x2 | x8 | x8 | x8 | G6 x2 | x8 | %14
 x6 |] %15
V:3
 F,2 | B,3 B, A,2 G,2 | F,6 [E,B,]2 | [D,B,]2 [F,A,]2 B,2 [D,B,]2 | [F,A,]6 [F,A,]2 | %5
 [B,,B,]3 [C,A,] [D,B,]2 [D,B,]2 | (B,2 C2 [D,B,]2) [B,,B,]2 | [C,A,]3 [C,A,] [C,B,]2 [C,B,]2 | %8
 [F,A,]6 [F,A,]2 | [F,B,]3 [F,B,] [F,B,]2 [F,B,]2 | [F,C]3 [F,C] [F,C]2 [^F,C]2 | [G,B,]4 [F,D]4 | %12
 ([E,C]2 [D,=B,]2 [C,C]2) [E,G,]2 | F,4 [F,,F,]4 | [B,,F,]6 |] %15
V:4
 F,2 | B,3 B, A,2 G,2 | F,6 x2 | x4 B,2 x2 | x8 | x8 | E,4 x4 | x8 | x8 | x8 | x8 | x8 | x8 | %13
 F,4 x4 | x6 |] %15

